X:1
T:Buxtehude - Aria:  La Capricciosa in G Minor.
%%score { ( 1 3 ) | ( 2 4 ) }
L:1/8
Q:1/4=100
M:3/8
K:G
V:1 treble nm="Harpsichord" snm="Hch."
V:3 treble 
V:2 bass 
V:4 bass 
V:1
"^Partita 30"!f! g/a/b/a/g/=f/ | e z z | d z z/ c/ | B>AG | B>cd | e/=f/e/d/ z/ g/ | g>gPf | g3 :: %8
 z/ c/B/A/G/=F/ | E>FPG | A/G/F/E/D/C/ | z/ F/G/A/B/c/ | [Bd]>[ce][d=f] | e/d/c/B/A/G/ | B>AG | %15
 G3 :| %16
V:2
 G,,>A,,B,, | E,>^F,G, | F,>G,A, | G,3 | G,/A,/G,/=F,/E,/D,/ | C,/D,/C,/B,,/A,,/G,,/ | %6
 D,/C,/D,/E,/D, | z/ E,/D,/C,/B,,/A,,/ :: G,>A,PB, | C/D/C/B,/A,/G,/ | z z/ G,/PA, | B,>CPD | x3 | %13
 C>DME | D>CB, | B,3 :| %16
V:3
 x3 | c/d/e/d/c/B/ | A/B/A/G/F/E/ | D/E/D/C/B,/A,/ | G>AB | x2 c/B/ | A2 PA | B3 :: x3 | x3 | x3 | %11
 x3 | z/ A/G/=F/E/D/ | x3 | G>F x | D3 :| %16
V:4
 x3 | C,3 | D,>E,F, | x3 | x3 | x3 | x3 | G,,3 :: G,, x2 | x3 | F,2 PF, | G,3 | x3 | x3 | D, D,,2 | %15
 G,,3 :| %16

